resources/haticons/SVG/sort-amount-asc.svg

<!-- Generated by IcoMoon.io -->
<svg version="1.1" xmlns="http://www.w3.org/2000/svg" width="24" height="24" viewBox="0 0 24 24">
<title>sort-amount-asc</title>
<path d="M7.5 18v-18h-3v18h-3.75l5.25 5.25 5.25-5.25h-3.75z"></path>
<path d="M10.5 13.5h13.5v3h-13.5v-3z"></path>
<path d="M10.5 9h10.5v3h-10.5v-3z"></path>
<path d="M10.5 4.5h7.5v3h-7.5v-3z"></path>
<path d="M10.5 0h4.5v3h-4.5v-3z"></path>
</svg>

<svg xmlns="http://www.w3.org/2000/svg" width="24" height="24"><path d="M7.5 18V0h-3v18H.75L6 23.25 11.25 18H7.5z"/><path d="M10.5 13.5H24v3H10.5v-3zm0-4.5H21v3H10.5V9zm0-4.5H18v3h-7.5v-3zm0-4.5H15v3h-4.5V0z"/></svg>
